assets/thin/book-bookmark-thin.svg

<svg id="Flat" xmlns="http://www.w3.org/2000/svg" viewBox="0 0 256 256">
  <path d="M208.00244,28h-136a28.03146,28.03146,0,0,0-28,28V224a4.0002,4.0002,0,0,0,4,4h144a4,4,0,0,0,0-8h-140v-4a20.02229,20.02229,0,0,1,20-20h136a4.0002,4.0002,0,0,0,4-4V32A4.0002,4.0002,0,0,0,208.00244,28Zm-92,8h56v84.001L146.394,100.7998a4.0005,4.0005,0,0,0-4.7998,0L116.00244,119.999Zm88,152h-132a27.915,27.915,0,0,0-20,8.42285V56a20.02229,20.02229,0,0,1,20-20h36v92a4,4,0,0,0,6.40039,3.2002L143.99561,109,173.603,131.2002A4.00015,4.00015,0,0,0,180.00244,128V36h24Z"/>
</svg>

<svg xmlns="http://www.w3.org/2000/svg" viewBox="0 0 256 256"><path d="M208,28H72A28.1,28.1,0,0,0,44,56V224a4,4,0,0,0,4,4H192a4,4,0,0,0,0-8H52v-4a20.1,20.1,0,0,1,20-20H208a4,4,0,0,0,4-4V32A4,4,0,0,0,208,28Zm-92,8h56v84l-25.6-19.2a3.9,3.9,0,0,0-4.8,0L116,120Zm88,152H72a27.9,27.9,0,0,0-20,8.4V56A20.1,20.1,0,0,1,72,36h36v92a4.2,4.2,0,0,0,2.2,3.6,4,4,0,0,0,4.2-.4L144,109l29.6,22.2a4.3,4.3,0,0,0,2.4.8,3.9,3.9,0,0,0,1.8-.4A4.2,4.2,0,0,0,180,128V36h24Z"/></svg>
